!!!SOCIAL_FUNCTION:	love songs
!!!PDT:	1913
!!!OTL: No_157_I_Have_Lost_My_Sweetheart.krn
!!!REG: Great_Lakes
!!!LANG: Non-Tone
!!!LING_GROUP: Algonquin
**kern
*staff1
*clefG2
*k[f#c#]
*M3/4
8f#/L
8.f#/
16d/Jk
=1
4.f#/
8f#/
8.d/L
16B/Jk
=2
4.d/
8f#/
8.d/L
16f#/Jk
=3
4.B/
16B/LL
16d/JJ
8.B/L
16G/Jk
=4
2.B/
=5
16f#/LK
8d/
16B/Jk
2d/
=6
16f#/LK
8d/
16f#/Jk
2B/
*clefF4
=7
16d\LK
8B\
16B\Jk
2G\
=8||
*M2/4
4B\
8.G\L
16F#\Jk
=9
2F#\
=10||
*M3/4
16F#\LK
8D\
16BB\Jk
2D\
=11||
*M2/4
4F#\
8.D/L
16BB/Jk
=12
2BB/
==
*-
